Numix-GalliumOS/16/actions/package-broken.svg

<?xml version="1.0" encoding="UTF-8" standalone="no"?>
<svg
   xmlns:dc="http://purl.org/dc/elements/1.1/"
   xmlns:cc="http://creativecommons.org/ns#"
   xmlns:rdf="http://www.w3.org/1999/02/22-rdf-syntax-ns#"
   xmlns:svg="http://www.w3.org/2000/svg"
   xmlns="http://www.w3.org/2000/svg"
   xmlns:sodipodi="http://sodipodi.sourceforge.net/DTD/sodipodi-0.dtd"
   xmlns:inkscape="http://www.inkscape.org/namespaces/inkscape"
   width="16"
   viewBox="0 0 16 16"
   height="16"
   id="svg2"
   version="1.1"
   inkscape:version="0.91 r"
   sodipodi:docname="package-broken.svg">
  <metadata
     id="metadata22">
    <rdf:RDF>
      <cc:Work
         rdf:about="">
        <dc:format>image/svg+xml</dc:format>
        <dc:type
           rdf:resource="http://purl.org/dc/dcmitype/StillImage" />
        <dc:title />
      </cc:Work>
    </rdf:RDF>
  </metadata>
  <defs
     id="defs20" />
  <sodipodi:namedview
     pagecolor="#ffffff"
     bordercolor="#666666"
     borderopacity="1"
     objecttolerance="10"
     gridtolerance="10"
     guidetolerance="10"
     inkscape:pageopacity="0"
     inkscape:pageshadow="2"
     inkscape:window-width="1366"
     inkscape:window-height="747"
     id="namedview18"
     showgrid="true"
     inkscape:zoom="10.429825"
     inkscape:cx="29.570998"
     inkscape:cy="11.86588"
     inkscape:window-x="0"
     inkscape:window-y="21"
     inkscape:window-maximized="1"
     inkscape:current-layer="svg2">
    <inkscape:grid
       type="xygrid"
       id="grid3018" />
  </sodipodi:namedview>
  <g
     transform="matrix(.42328 0 0 .42328 -2.53968 7.61905)"
     id="g4">
    <path
       style="fill:#c19553"
       d="M 8.3625,-18 C 7.3339285,-18 6,-16.666072 6,-15.6375 L 6,15.075 c 0,0.971429 1.3910714,2.3625 2.3625,2.3625 l 30.7125,0 c 0.971429,0 2.3625,-1.391071 2.3625,-2.3625 l 0,-30.7125 C 41.4375,-16.608929 40.046429,-18 39.075,-18 z"
       id="path6" />
  </g>
  <g
     style="fill:#fff"
     transform="matrix(.42328 0 0 .42328 -2.53968 -2.53968)"
     id="g8">
    <path
       style="fill-opacity:.196"
       d="M 8.3625,6 C 7.3339285,6 6,7.3339285 6,8.3625 l 0,9.45 c 3.9999999,0 31.4375,0 35.4375,0 l 0,-9.45 C 41.4375,7.3910714 40.046429,6 39.075,6 z"
       id="path10" />
    <path
       style="fill-opacity:.392"
       d="m 20.175,10.725 0,14.175 7.0875,0 0,-14.175 z"
       id="path12" />
  </g>
  <path
     inkscape:connector-curvature="0"
     style="fill:#dc322f;fill-opacity:1;fill-rule:evenodd"
     d="m 16,12 c 0,2.208594 -1.791407,4 -4,4 -2.208594,0 -4,-1.791406 -4,-4 0,-2.208594 1.791406,-3.9999999 4,-3.9999999 2.208593,0 4,1.7914059 4,3.9999999 z"
     id="path4267" />
  <path
     style="fill:#ffffff;fill-opacity:0.9020004"
     id="path4271"
     d="m 11,9.0000001 2,0 L 13,12 11,12 11,9.0000001"
     inkscape:connector-curvature="0" />
  <path
     id="path4273"
     d="m 11,14 c 0,-0.550781 0.449219,-1 1,-1 0.550781,0 1,0.449219 1,1 0,0.550781 -0.449219,1 -1,1 -0.550781,0 -1,-0.449219 -1,-1 z"
     style="fill:#ffffff;fill-opacity:0.9020004;fill-rule:evenodd"
     inkscape:connector-curvature="0" />
</svg>

<svg xmlns="http://www.w3.org/2000/svg" viewBox="0 0 16 16">
 <g transform="matrix(.42328 0 0 .42328 -2.53968 7.61905)">
  <path d="m 8.363 -18 c -1.029 0 -2.363 1.334 -2.363 2.363 l 0 30.713 c 0 0.971 1.391 2.363 2.363 2.363 l 30.713 0 c 0.971 0 2.362 -1.391 2.362 -2.363 l 0 -30.713 c 0 -0.971 -1.391 -2.363 -2.362 -2.363 z" style="fill:#c19553"/>
 </g>
 <g transform="matrix(.42328 0 0 .42328 -2.53968 -2.53968)" style="fill:#fff">
  <path d="m 8.363 6 c -1.029 0 -2.363 1.334 -2.363 2.363 l 0 9.45 c 4 0 31.438 0 35.438 0 l 0 -9.45 c 0 -0.971 -1.391 -2.363 -2.362 -2.363 z" style="fill-opacity:0.196"/>
  <path d="m 20.18 10.725 0 14.175 7.088 0 0 -14.175 z" style="fill-opacity:0.392"/>
 </g>
 <path d="m 16 12 c 0 2.209 -1.791 4 -4 4 -2.209 0 -4 -1.791 -4 -4 0 -2.209 1.791 -4 4 -4 2.209 0 4 1.791 4 4 z" style="fill:#dc322f;fill-opacity:1;fill-rule:evenodd"/>
 <path d="m 11 9 2 0 l 0 3 -2 0 0 -3" style="fill:#fff;fill-opacity:0.902"/>
 <path d="m 11 14 c 0 -0.551 0.449 -1 1 -1 0.551 0 1 0.449 1 1 0 0.551 -0.449 1 -1 1 -0.551 0 -1 -0.449 -1 -1 z" style="fill:#fff;fill-opacity:0.902;fill-rule:evenodd"/>
</svg>
